X:13846
T:Quick Step. HSJJ.192
M:2/4
L:1/8
Q:180
S:HSJ Jackson,Wyresdale,Lancs.1823
R:Quickstep
O:England
A:Lancashire
H:1823
Z:Chris Partington
K:C
g/f/|efde|c2cB/c/|dd dc/d/|e/f/g/e/ dg/f/|efde|c2cB/c/|!dd d/c/d/e/"hold
"|c3:|
|g|aza2|gzg2|fedc|B/c/d/B/ Gg|aza2|gzg2|fedc|"DC"g3|]
